X: 64
T:Orton Lodge. WI.064
M:6/8
Q:120
C:by Irwin
S:Wm Irwin, Folio MS, c1850. AGG's Transcription
R:Quadrille
O:England
A:Lake District
N:quadrille or march ...CGP
Z:vmp.Chris Partington.2005
K:C
e|gfg (c'2e)|fef (a2c)|Bdg b2b|a2g g2e|!
gfg (c'2e)|fef (a2g)|gag fed|c3 c2||!
c|Bdg .b2.a|.g2.f .e2.d|cBc A2G|^FAc e2d|!
Bdg .b2.a|.g2.f .e2.d|d^cd b2a|g3 g2|]
